!!!!SEGMENT: pl-wn--sd-xvi-o-249_anonim--kancjonal-zamoyskich-piesn-o-bozym-umeczeniu-wszechmogacy-nasz-panie.krn
!!!cenid: 15xx:807
!!!COM: Anonim
!!!COM-rismID: pe30004985
!!!CDT:
!!!CNT:
!!!GTL: Kancjonał Zamoyskich
!!!OTL: Pieśń o bożym umęczeniu/Wszechmogący nasz panie
!!!PDT: 1558
!!!AGN:
!!!SMS-siglum: PL-Wn
!!!SMS-shelfmark: SD XVI.O.249
!!!SMS-shelfwork: G
!!!SMS-variant:
!!!SMS-altvar:
!!!NIFC-rismSourceID:
!!!NIFC-islandoraID:
!!!URL-pdf-islandora:
!!!URL-scan: https://polona.pl/item/piesn-o-bozem-vmeczeniu-barzo-nabozna-y-wsselkiemu-krzescianinowi-potrzebna-inc,MTE3MjMxMQ/3/#info:metadata @EN{Scan on Polona} @PL{Skany w portalu Polona}
!!!ONB-nifc: UWAGA: proszę zapisywać tylko teksty występujące bezpośrednio pod nutami
!!!AIN: 1 alto 1 bass 1 soprn 1 tenor
!!!key: d:dor
**kern	**text	**mod-text	**kern	**text	**mod-text	**kern	**text	**mod-text	**kern	**text	**mod-text
*part4	*part4	*part4	*part3	*part3	*part3	*part2	*part2	*part2	*part1	*part1	*part1
*staff4	*staff4	*staff4	*staff3	*staff3	*staff3	*staff2	*staff2	*staff2	*staff1	*staff1	*staff1
*I"BASSVS.	*	*	*I"TENOR.	*	*	*I"ALTVS.	*	*	*I"DISCANT.	*	*
*I'B	*	*	*I'T	*	*	*I'A	*	*	*I'S	*	*
*Ibass	*	*	*Itenor	*	*	*Ialto	*	*	*Isoprn	*	*
*ICvox	*	*	*ICvox	*	*	*ICvox	*	*	*ICvox	*	*
*mI"Basso	*	*	*mI"Tenore II	*	*	*mI"Tenore I	*	*	*mI"Alto	*	*
*mI'B	*	*	*mI'T 2	*	*	*mI'T 1	*	*	*mI'A	*	*
*clefF4	*	*	*clefC4	*	*	*clefC3	*	*	*clefC1	*	*
*	*	*	*mclefGv2	*	*	*mclefGv2	*	*	*mclefG2	*	*
*k[]	*	*	*k[]	*	*	*k[]	*	*	*k[]	*	*
*d:dor	*	*	*d:dor	*	*	*d:dor	*	*	*d:dor	*	*
*M2/1	*	*	*M2/1	*	*	*M2/1	*	*	*M2/1	*	*
*met(C|)	*	*	*met(C|)	*	*	*met(C|)	*	*	*met(C|)	*	*
*mmet(c|)	*	*	*mmet(c|)	*	*	*mmet(c|)	*	*	*mmet(c|)	*	*
=1-	=1-	=1-	=1-	=1-	=1-	=1-	=1-	=1-	=1-	=1-	=1-
1D	.	Wszech-	1D	Wſſech-	Wszech-	1d	.	Wszech-	1d	Wſſech-	Wszech-
1D	.	-mo-	1A	-mo-	-mo-	1d	.	-mo-	1f	-mo-	-mo-
=2-	=2-	=2-	=2-	=2-	=2-	=2-	=2-	=2-	=2-	=2-	=2-
1D	.	-gą-	1A	-gą-	-gą-	1d	.	-gą-	1f	-gą-	-gą-
2.E/	.	-cy	1G	-cy	-cy	1B	.	-cy	1g	-cy	-cy
4D/	.	.	.	.	.	.	.	.	.	.	.
=3-	=3-	=3-	=3-	=3-	=3-	=3-	=3-	=3-	=3-	=3-	=3-
2C/	.	nasz	1c	náſz	nasz	2.c\	.	nasz	2e/	náſz	nasz
2AA/	.	.	.	.	.	.	.	.	1a	pa-	Pa-
.	.	.	.	.	.	4d\	.	.	.	.	.
1E	.	Pa-	1B	pá-	Pa-	1e	.	Pa-	.	.	.
.	.	.	.	.	.	.	.	.	2g/	-nie	.
=4-	=4-	=4-	=4-	=4-	=4-	=4-	=4-	=4-	=4-	=4-	=4-
0AA	.	-nie	0A	-nie	-nie	0e	.	-nie	0a	ec.	-nie
=5-	=5-	=5-	=5-	=5-	=5-	=5-	=5-	=5-	=5-	=5-	=5-
1C	.	dziw-	1G	ec.	dziw-	1c	.	dziw-	1e	.	dziw-
1C	.	-noś	1E	.	-noś	1c	.	-noś	1g	.	-noś
=6-	=6-	=6-	=6-	=6-	=6-	=6-	=6-	=6-	=6-	=6-	=6-
1D	.	swój	1F	.	swój	1A	.	swój	1f	.	swój
2C/	.	świat	1G	.	świat	2C/	.	świat	2e/	.	świat
2BB/	.	.	.	.	.	2D/	.	.	2d/	.	.
=7-	=7-	=7-	=7-	=7-	=7-	=7-	=7-	=7-	=7-	=7-	=7-
0AA	.	spra-	0A	.	spra-	0E	.	spra-	0c	.	spra-
=8-	=8-	=8-	=8-	=8-	=8-	=8-	=8-	=8-	=8-	=8-	=8-
0AA	.	-wił	0A	.	-wił	0E	.	-wił	0c	.	-wił
*	*	*	*	*	*	*	*	*	*custos:f	*	*
=9-	=9-	=9-	=9-	=9-	=9-	=9-	=9-	=9-	=9-	=9-	=9-
!LO:TX:t=P:problem:błędnie custos:D zamiast custos:F	!	!	!	!	!	!	!	!	!LO:LB:g=original	!	!
1D	.	A	1A	.	A	1d	.	A	1f	.	A
*custos:D	*	*	*	*	*	*	*	*	*	*	*
1F	.	swą	1A	.	swą	1d	.	swą	1f	.	swą
=10-	=10-	=10-	=10-	=10-	=10-	=10-	=10-	=10-	=10-	=10-	=10-
!LO:LB:g=original	!	!	!	!	!	!	!	!	!	!	!
1F	.	nie-	1A	.	nie-	1d	.	nie-	1f	.	nie-
*	*	*	*	*	*	*custos:B	*	*	*	*	*
!	!	!	!	!	!	!LO:LB:g=original	!	!	!	!	!
2.E/	.	-zwy-	1G	.	-zwy-	1B	.	-zwy-	1g	.	-zwy-
4D/	.	.	.	.	.	.	.	.	.	.	.
*	*	*	*custos:c	*	*	*	*	*	*	*	*
=11-	=11-	=11-	=11-	=11-	=11-	=11-	=11-	=11-	=11-	=11-	=11-
!	!	!	!LO:LB:g=original	!	!	!	!	!	!	!	!
2C/	.	-kłą	1c	.	-kłą	1e	.	-kłą	2e/	.	-kłą
2AA/	.	.	.	.	.	.	.	.	1a	.	mi-
1E	.	mi-	1B	.	mi-	1e	.	mi-	.	.	.
.	.	.	.	.	.	.	.	.	2g/	.	.
=12-	=12-	=12-	=12-	=12-	=12-	=12-	=12-	=12-	=12-	=12-	=12-
0AA	.	-łość	0A	.	-łość	0c	.	-łość	0a	.	-łość
=13-	=13-	=13-	=13-	=13-	=13-	=13-	=13-	=13-	=13-	=13-	=13-
1E	.	czło-	1G	.	czło-	1B	.	czło-	1e	.	czło-
1C	.	-wie-	1G	.	-wie-	1c	.	-wie-	1e	.	-wie-
=14-	=14-	=14-	=14-	=14-	=14-	=14-	=14-	=14-	=14-	=14-	=14-
1D	.	-ko-	1F	.	-ko-	1A	.	-ko-	2f/	.	-ko-
.	.	.	.	.	.	.	.	.	1d	.	-wi
1AA	.	-wi	1E	.	-wi	1A	.	-wi	.	.	.
.	.	.	.	.	.	.	.	.	2c/	.	.
=15-	=15-	=15-	=15-	=15-	=15-	=15-	=15-	=15-	=15-	=15-	=15-
0A	.	zja-	0D	.	zja-	0F	.	zja-	0d	.	zja-
=16-	=16-	=16-	=16-	=16-	=16-	=16-	=16-	=16-	=16-	=16-	=16-
0A	.	-wieł	0D	.	-wieł	0F	.	-wieł	0d	.	-wieł
=17-	=17-	=17-	=17-	=17-	=17-	=17-	=17-	=17-	=17-	=17-	=17-
1AA	.	Na	1E	.	Na	1A	.	Na	1c	.	Na
1AA	.	kształt	1E	.	kształt	1A	.	kształt	1c	.	kształt
*	*	*	*	*	*	*	*	*	*custos:d	*	*
=18-	=18-	=18-	=18-	=18-	=18-	=18-	=18-	=18-	=18-	=18-	=18-
!	!	!	!	!	!	!	!	!	!LO:LB:g=original	!	!
1D	.	swej	1F	.	swej	1A	.	swej	1d	.	swej
1D	.	świę-	1F	.	świę-	1A	.	świę-	1d	.	świę-
*custos:C	*	*	*	*	*	*	*	*	*	*	*
=19-	=19-	=19-	=19-	=19-	=19-	=19-	=19-	=19-	=19-	=19-	=19-
!LO:LB:g=original	!	!	!	!	!	!	!	!	!	!	!
1C	.	-tej	1G	.	-tej	1c	.	-tej	2e/	.	-tej
.	.	.	.	.	.	.	.	.	1e	.	twa-
!	!	!	!	!	!	!LO:N:vis=2	!	!	!	!	!
1D	.	twa-	1F	.	twa-	1B/	.	twa-	.	.	.
.	.	.	.	.	.	.	.	.	2d/	.	.
=20-	=20-	=20-	=20-	=20-	=20-	=20-	=20-	=20-	=20-	=20-	=20-
0AA	.	-rzy	0E	.	-rzy	0c	.	-rzy	0e	.	-rzy
*	*	*	*	*	*	*custos:A	*	*	*	*	*
=21-	=21-	=21-	=21-	=21-	=21-	=21-	=21-	=21-	=21-	=21-	=21-
!	!	!	!	!	!	!LO:LB:g=original	!	!	!	!	!
1D	.	ra-	1F	.	ra-	1A	.	ra-	1d	.	ra-
1D	.	-cze-	1F	.	-cze-	1A	.	-cze-	1d	.	-cze-
*	*	*	*custos:G	*	*	*	*	*	*	*	*
=22-	=22-	=22-	=22-	=22-	=22-	=22-	=22-	=22-	=22-	=22-	=22-
!	!	!	!LO:LB:g=original	!	!	!	!	!	!	!	!
2.E/	.	-łeś	1G	.	-łeś	1G	.	-łeś	1e	.	-łeś
!LO:N:vis=2	!	!	!	!	!	!	!	!	!	!	!
4D/	.	.	.	.	.	.	.	.	.	.	.
2C/	.	go	1G	.	go	1c	.	go	1e	.	go
2BB/	.	.	.	.	.	.	.	.	.	.	.
=23-	=23-	=23-	=23-	=23-	=23-	=23-	=23-	=23-	=23-	=23-	=23-
0AA	.	stwo-	0A	.	stwo-	1.C	.	stwo-	0c	.	stwo-
.	.	.	.	.	.	2D/	.	.	.	.	.
=24-	=24-	=24-	=24-	=24-	=24-	=24-	=24-	=24-	=24-	=24-	=24-
0AA	.	-rzyć	0A	.	-rzyć	0E	.	-rzyć	0c	.	-rzyć
*	*	*	*	*	*	*	*	*	*custos:f	*	*
=25-	=25-	=25-	=25-	=25-	=25-	=25-	=25-	=25-	=25-	=25-	=25-
!	!	!	!	!	!	!	!	!	!LO:LB:g=original	!	!
1D	.	A	1A	.	A	1d	.	A	1f	.	A
1D	.	nad	1A	.	nad	1d	.	nad	1f	.	nad
=26-	=26-	=26-	=26-	=26-	=26-	=26-	=26-	=26-	=26-	=26-	=26-
1D	.	wszy-	1A	.	wszy-	1d	.	wszy-	1f	.	wszy-
2.E/	.	-tkim	1G	.	-tkim	1B	.	-tkim	1g	.	-tkim
4D/	.	.	.	.	.	.	.	.	.	.	.
=27-	=27-	=27-	=27-	=27-	=27-	=27-	=27-	=27-	=27-	=27-	=27-
2C/	.	stwo-	1c	.	stwo-	1e	.	stwo-	2e/	.	stwo-
2AA/	.	.	.	.	.	.	.	.	1a	.	-rze-
*custos:E	*	*	*	*	*	*	*	*	*	*	*
!LO:LB:g=original	!	!	!	!	!	!	!	!	!	!	!
1E	.	-rze-	1B	.	-rze-	1e	.	-rze-	.	.	.
.	.	.	.	.	.	.	.	.	2g/	.	.
=28-	=28-	=28-	=28-	=28-	=28-	=28-	=28-	=28-	=28-	=28-	=28-
0AA	.	-nim	0A	.	-nim	0c	.	-nim	0a	.	-nim
=29-	=29-	=29-	=29-	=29-	=29-	=29-	=29-	=29-	=29-	=29-	=29-
1E	.	przed-	1G	.	przed-	1B	.	przed-	1e	.	przed-
1C	.	-niej-	1G	.	-niej-	1c	.	-niej-	1e	.	-niej-
=30-	=30-	=30-	=30-	=30-	=30-	=30-	=30-	=30-	=30-	=30-	=30-
1D	.	-szem	1F	.	-szem	1A	.	-szem	2f/	.	-szem
.	.	.	.	.	.	.	.	.	1d	.	prze-
1AA	.	prze-	1E	.	prze-	1A	.	prze-	.	.	.
.	.	.	.	.	.	.	.	.	2c/	.	.
=31-	=31-	=31-	=31-	=31-	=31-	=31-	=31-	=31-	=31-	=31-	=31-
0A	.	-ło-	0D	.	-ło-	0F	.	-ło-	0d	.	-ło-
=32-	=32-	=32-	=32-	=32-	=32-	=32-	=32-	=32-	=32-	=32-	=32-
0Al\	.	-żyć.	0Dl/	.	-żyć.	0Fl/	.	-żyć.	0dl/	.	-żyć.
==	==	==	==	==	==	==	==	==	==	==	==
*-	*-	*-	*-	*-	*-	*-	*-	*-	*-	*-	*-
!!!system-decoration: [(*)]
!!!RDF**kern: > = above
!!!RDF**kern: < = below
!!LO:MO:ori
!!!RDF**kern: l = terminal long
!!LO:MO:end
!!!filter-modern: sic -sq | shed -e "s/TX(.*):t=P:/tx$1:t=P:/LG" | shed -k -e "s/LO:N:vis/LO:n:vis:/L" | shed -e "s/^(\d+[\/\\]right)/$1yy/I;s/^(\d+[\/\\]left)/$1yy/I" | shed -e "s/-//B" | shed -e "s/^custos:/Xcustos:/I" | shed -k -e "s/LO:N:acc/LO:n:acc:/L" | autostem -r | tie -s | humtr -p | modori -m
!!!ENC: Katarzyna Serwa
!!!END: 2022-05-07
!!!ENC: Mateusz Solarz
!!!END: 2022-04-25
!!!ENC-modern: Andrzej Borzym
!!!END-modern: 2022-07-23
